X:1
T:Udite, o selve
T:Udite, o selve
T:Domenico Obizzi
T:Arietta
T:Source : Madrigali et arie a voce sola---Libro I ---Venetia---A.Vincenti---1627. Editor : André Vierendeels (01/03/16).
T:Notes : Original clefs : C1, F4 Editorial accidentals above the staff Dotted brackets indicate black notes Note values have been halved Notation in original print :"Alfabeto d'ariette per la Chitarra alla Spagnola", realised by the editor.   
T:©
T:©
C:Domenico Obizzi
Z:©
%%score 1 { ( 2 3 ) | 4 }
L:1/8
Q:1/4=100
M:3/4
K:C
V:1 treble nm="Soprano" snm="S"
V:2 treble nm="BC" snm="BC"
V:3 treble 
V:4 bass 
V:1
 z4 A2 | d4 d2 | d2 c4 | _B6 | A6 | z2 A2 c2 | _B2 B2 A2 | G6 | F6 | z2 F2 A2 | G2 G2 F2 | E6 | %12
w: U-|di- te'u-|di- te'O|sel-|ve|i miei|cru- di mar-|ti-|ri,|i miei|fie- ri so-|spi-|
w: E|tu di|que- ste|grot-|te,|Ro- mi-|ta'e ga- rul'|e-|co,|pre- go|l'ag- ni- ti|me-|
w: Au-|ril- la|cru- da'e|bel-|la,|sem- pre,|sem- pre mi|fug-|ge,|sem- pre,|sem- pre mi|gug-|
w: Quan-|do ch'io|la ri-|mi-|ro|chiu- de'in|re- t'e as-|con-|de,|le sot-|til chio- m'e|bion-|
w: Di-|sprez- za'el-|la'il mio|duo-|lo|e del|mio mal si|ri-|de,|in gui-|sa che m'an-|ci-|
 D6 | z4 D2 | A4 A2- | A2 A2 d2 | c4 A2 | z2 c2 B2 | A4 c2 | c2 c3 B | c6 | z2 G2 A2 | _B2 c2 B2 | %23
w: ri|e|voi au-|* re sen-|ti- te,|i miei|du- ti|la- men- ti,|_|i miei|gra- vi tor-|
w: co,|e|men- tre|_ pian- go'e|gri- do,|su'i fron-|do- si'ar-|bo- scel- li,|_|Ta- ce-|te'a- mi- ci'An-|
w: ge,|sde-|gna l'or-|* go- glio-|set- ta,|ch'io la|lu- sin-|chi'e vez- zi,|_|spez- za|ch'io l'ac- ca-|
w: de,|e|con il|_ bian- co|ve- lo,|si co-|pr'e ce-|l'à pie- no,|_|il can-|di- det- to|
w: de,|spes-|so per|_ non u-|di- re,|il suon|del- la|mia vo- ce,|_|se ne|fug- ge ve-|
 _B2 A4 | G6 | z2 D2 E2 | F2 G2 F2 | F2 E4 | !fermata!D6 |] %29
w: men- *|ti,|i miei|gra- vi tor-|men- *|ti.|
w: gel- *|li|ta- ce-|te'a- mi- ci'An-|gel- *|li.|
w: rez- *|zi,|spez- za|ch'io l'ac- ca-|rez- *|za.|
w: se- *|no,|il can-|di- det- to|se- *|no.|
w: lo- *|ce,|se ne|fug- ge ve-|lo- *|ce.|
V:2
 A6 | A6 | A2 c4 | d6 | c6 | c6 | d6 | c6 | c6 | c6 | B6 | ^c6 | A6 | A6 | d6 | d6 | c6 | A4 G2 | %18
 F4 G2 | A2 F4 | G6 | G6 | G6 | G2 ^F4 | G6 | B6 | A2 G2 _B2- | B2 A4 | A6 |] %29
V:3
 F6 | F6 | F2 E4 | F6 | A6 | A6 | F6 | G6 | A6 | A6 | D6 | A6 | F6 | F6 | F6 | F6 | E6 | E4 E2 | %18
 C4 E2 | A,2 D4 | C6 | E6 | D2 E4 | E2 D4 | D6 | D6 | F2 D4- | D2 ^C4 | D6 |] %29
V:4
 D,4 D,2 | D,4 D,2 | D,2 A,4 | _B,6 | F,6 | F,4 F,2 | _B,,4 B,,2 | C,4 C,2 | F,,6 | F,,4 F,,2 | %10
 G,,4 G,,2 |"^#" A,,6 | D,6 | D,4 D,2 | D,4 D,2 | D,4 D,2 | A,,4 A,,2 | A,4 E,2 | F,4 E,2 | %19
 F,2 D,4 | C,4 C,2 | C,4 C,2 | G,,2 C,4 |"^#" C,2 D,4 | G,,4 G,,2 | G,,4 G,,2 | D,2 G,,4 | %27
"^#" G,,2 A,,4 | !fermata!D,6 |] %29

